contributed-vectors/taobao_alt.svg

<svg xmlns="http://www.w3.org/2000/svg" xml:space="preserve" style="fill-rule:evenodd;clip-rule:evenodd;stroke-linejoin:round;stroke-miterlimit:2" viewBox="0 0 192 192"><path d="M164.5 21.5c0-5.519-4.481-10-10-10h-133c-5.519 0-10 4.481-10 10v133c0 5.519 4.481 10 10 10h133c5.519 0 10-4.481 10-10v-133Z" style="fill:#ff837d" transform="translate(8 8)"/><path d="m40.836 110.045 14.739 9.74 13.458-29.094s5.255-8.843.513-14.611c-4.743-5.767-17.559-16.277-17.559-16.277l-6.281 9.485 12.689 8.715s7.177 5.383-.513 14.355c-7.69 8.971-17.046 17.687-17.046 17.687Z" style="fill:#fff" transform="translate(-2.459 15.27)"/><path d="M87.723 59.013c-5.667-.407-13.751 10.664-13.751 10.664l-8.954-5.129c9.974-8.41 14.97-26.554 14.97-26.554l13.842 4.102s-4.204 6.767-3.589 6.254c.615-.513 8.203-3.896 30.145-5.229 21.942-1.333 27.171 10.048 27.991 14.145.821 4.098 2.871 23.792.821 47.272-2.051 23.481-37.895 15.688-37.895 15.688l1.188-8.232c2.894 1.035 7.769 2.45 14.536 1.425 6.767-1.026 7.14-6.357 7.14-6.357s2.772-42.912-.168-49.536c-1.071-2.413-1.866-6.596-13.153-7.449C109.559 49.224 96 55.523 96 55.523l5.637 1.743c-.735 2.73-5.145 7.282-5.145 7.282h33.509v6.833h-18.698v8.502h18.698v6.777h-18.698v14.405s7.649-3.749 8.131-3.875l-1.712-6.419 8.662-3.098 7.035 17.482-10.394 5.302-1.947-7.228c-.163.133-.336.269-.522.407-6.537 4.871-19.61 8.716-34.605 8.331-14.996-.384-11.979-21.695-11.979-21.695h13.734s.042 8.274 0 8.61c1.596 3.99 8.294 3.696 8.294 3.696V86.66H76.444v-6.777H96v-8.502h-5.228l-8.232 8.502-6.096-5.706c10.368-11.088 11.235-14.934 11.279-15.164Zm0 0 .002.001v-.012l-.002.011Z" style="fill:#fff" transform="translate(-2.459 15.27)"/></svg>

<?xml version="1.0" encoding="UTF-8" standalone="no"?>
<!DOCTYPE svg PUBLIC "-//W3C//DTD SVG 1.1//EN" "http://www.w3.org/Graphics/SVG/1.1/DTD/svg11.dtd">
<svg width="100%" height="100%" viewBox="0 0 192 192" version="1.1" xmlns="http://www.w3.org/2000/svg" xmlns:xlink="http://www.w3.org/1999/xlink" xml:space="preserve" xmlns:serif="http://www.serif.com/" style="fill-rule:evenodd;clip-rule:evenodd;stroke-linejoin:round;stroke-miterlimit:2;">
    <g id="Layer1">
        <g transform="matrix(1,0,0,1,8,8)">
            <path d="M164.5,21.5C164.5,15.981 160.019,11.5 154.5,11.5L21.5,11.5C15.981,11.5 11.5,15.981 11.5,21.5L11.5,154.5C11.5,160.019 15.981,164.5 21.5,164.5L154.5,164.5C160.019,164.5 164.5,160.019 164.5,154.5L164.5,21.5Z" style="fill:rgb(255,131,125);"/>
        </g>
        <g transform="matrix(1,0,0,1,-2.45873,15.2698)">
            <path d="M40.836,110.045L55.575,119.785L69.033,90.691C69.033,90.691 74.288,81.848 69.546,76.08C64.803,70.313 51.987,59.803 51.987,59.803L45.706,69.288L58.395,78.003C58.395,78.003 65.572,83.386 57.882,92.358C50.192,101.329 40.836,110.045 40.836,110.045Z" style="fill:white;"/>
            <path d="M87.723,59.013C82.056,58.606 73.972,69.677 73.972,69.677L65.018,64.548C74.992,56.138 79.988,37.994 79.988,37.994L93.83,42.096C93.83,42.096 89.626,48.863 90.241,48.35C90.856,47.837 98.444,44.454 120.386,43.121C142.328,41.788 147.557,53.169 148.377,57.266C149.198,61.364 151.248,81.058 149.198,104.538C147.147,128.019 111.303,120.226 111.303,120.226L112.491,111.994C115.385,113.029 120.26,114.444 127.027,113.419C133.794,112.393 134.167,107.062 134.167,107.062C134.167,107.062 136.939,64.15 133.999,57.526C132.928,55.113 132.133,50.93 120.846,50.077C109.559,49.224 96,55.523 96,55.523L101.637,57.266C100.902,59.996 96.492,64.548 96.492,64.548L130.001,64.548L130.001,71.381L111.303,71.381L111.303,79.883L130.001,79.883L130.001,86.66L111.303,86.66L111.303,101.065C111.303,101.065 118.952,97.316 119.434,97.19L117.722,90.771L126.384,87.673L133.419,105.155L123.025,110.457L121.078,103.229C120.915,103.362 120.742,103.498 120.556,103.636C114.019,108.507 100.946,112.352 85.951,111.967C70.955,111.583 73.972,90.272 73.972,90.272L87.706,90.272C87.706,90.272 87.748,98.546 87.706,98.882C89.302,102.872 96,102.578 96,102.578L96,86.66L76.444,86.66L76.444,79.883L96,79.883L96,71.381L90.772,71.381L82.54,79.883L76.444,74.177C86.812,63.089 87.679,59.243 87.723,59.013ZM87.723,59.013L87.725,59.014L87.725,59.002L87.723,59.013Z" style="fill:white;"/>
        </g>
    </g>
</svg>
